img/twitter_purple.svg

<?xml version="1.0" encoding="UTF-8" standalone="no"?>
<svg width="32px" height="32px" viewBox="0 0 32 32" version="1.1" xmlns="http://www.w3.org/2000/svg" xmlns:xlink="http://www.w3.org/1999/xlink" xmlns:sketch="http://www.bohemiancoding.com/sketch/ns">
    <!-- Generator: Sketch 3.0.4 (8053) - http://www.bohemiancoding.com/sketch -->
    <title>twitter_purple</title>
    <desc>Created with Sketch.</desc>
    <defs></defs>
    <g id="Social" stroke="none" stroke-width="1" fill="none" fill-rule="evenodd" sketch:type="MSPage">
        <g id="twitter_purple" sketch:type="MSArtboardGroup" transform="translate(0.500000, 0.000000)" fill="#A25CC6">
            <path d="M10.0638648,32 C6.35634076,32 2.90538791,30.9134388 0,29.0511302 C0.513610593,29.1117482 1.03623395,29.1427594 1.56611434,29.1427594 C4.64192545,29.1427594 7.47275321,28.0934116 9.71962398,26.3330303 C6.84677567,26.2800187 4.42222466,24.3823691 3.58684663,21.7746221 C3.98762208,21.8512724 4.39893193,21.8923476 4.82194667,21.8923476 C5.42076886,21.8923476 6.00074619,21.8121866 6.55169538,21.6621628 C3.54822049,21.0592588 1.28531402,18.4063409 1.28531402,15.226116 C1.28531402,15.1984985 1.28531402,15.170998 1.28578222,15.1436146 C2.17102308,15.6352294 3.18326201,15.9304792 4.25952668,15.9645329 C2.49794067,14.7875127 1.33880537,12.7784569 1.33880537,10.5013008 C1.33880537,9.29841839 1.66256264,8.17089901 2.22767475,7.20147809 C5.46571564,11.1725463 10.3032298,13.7856763 15.7595816,14.0593938 C15.6476828,13.5790132 15.5895095,13.0780365 15.5895095,12.5636022 C15.5895095,8.93880582 18.5290757,6 22.1548996,6 C24.0431325,6 25.7493544,6.79716264 26.9469988,8.07283349 C28.4424156,7.7784029 29.8474706,7.2321382 31.1159296,6.48002953 C30.6257288,8.01268352 29.5848129,9.2990035 28.2292695,10.1113792 C29.5573064,9.95269559 30.8226051,9.59987037 32,9.07782949 C31.1197922,10.3941074 30.0066572,11.5501805 28.7240353,12.4756006 C28.7366765,12.7570417 28.7429972,13.040121 28.7429972,13.3247216 C28.7429972,21.9983707 22.1395662,32 10.0638648,32" id="Fill-1" sketch:type="MSShapeGroup"></path>
        </g>
    </g>
</svg>

<svg viewBox="0 0 32 32" xmlns="http://www.w3.org/2000/svg"><g fill="none" fill-rule="evenodd"><path d="m10.06 32c-3.708 0-7.158-1.087-10.06-2.949.514.061 1.036.092 1.566.092 3.076 0 5.907-1.049 8.154-2.81-2.873-.053-5.297-1.951-6.133-4.558.401.077.812.118 1.235.118.599 0 1.179-.08 1.73-.23-3-.603-5.266-3.256-5.266-6.436 0-.028 0-.055 0-.083.885.492 1.897.787 2.974.821-1.762-1.177-2.921-3.186-2.921-5.463 0-1.203.324-2.33.889-3.3 3.238 3.971 8.08 6.584 13.532 6.858-.112-.48-.17-.981-.17-1.496 0-3.625 2.94-6.564 6.565-6.564 1.888 0 3.594.797 4.792 2.073 1.495-.294 2.9-.841 4.169-1.593-.49 1.533-1.531 2.819-2.887 3.631 1.328-.159 2.593-.512 3.771-1.034-.88 1.316-1.993 2.472-3.276 3.398.013.281.019.565.019.849 0 8.674-6.603 18.675-18.679 18.675" transform="translate(.5)" fill="#a25cc6"/></g></svg>
